svg/micro_sd.svg

<svg xmlns="http://www.w3.org/2000/svg" viewBox="0 0 24 24"><path d="M8 2a2 2 0 0 0-2 2v7l-2 2v7a2 2 0 0 0 2 2h12a2 2 0 0 0 2-2V4a2 2 0 0 0-2-2zm1 2h2v4H9zm3 0h2v4h-2zm3 0h2v4h-2z"/></svg>

<?xml version="1.0" encoding="UTF-8"?><!DOCTYPE svg PUBLIC "-//W3C//DTD SVG 1.1//EN" "http://www.w3.org/Graphics/SVG/1.1/DTD/svg11.dtd"><svg xmlns="http://www.w3.org/2000/svg" xmlns:xlink="http://www.w3.org/1999/xlink" version="1.1" id="mdi-micro-sd" width="24" height="24" viewBox="0 0 24 24"><path d="M8,2A2,2 0 0,0 6,4V11L4,13V20A2,2 0 0,0 6,22H18A2,2 0 0,0 20,20V4A2,2 0 0,0 18,2H8M9,4H11V8H9V4M12,4H14V8H12V4M15,4H17V8H15V4Z" /></svg>
